Icons/key.svg

<?xml version="1.0" encoding="UTF-8" standalone="no"?>
<svg
   viewBox="0 0 50 50"
   width="50px"
   height="50px"
   version="1.1"
   id="svg1"
   xml:space="preserve"
   xmlns="http://www.w3.org/2000/svg"
   xmlns:svg="http://www.w3.org/2000/svg"><defs
     id="defs1" /><style
     type="text/css"
     id="style1"><![CDATA[
	.st0{fill-rule:evenodd;clip-rule:evenodd;}
]]></style><g
     id="g1"
     transform="matrix(0.28643288,0,0,0.28643288,9.608852,6.4756787)"><g
       id="g1-7"
       transform="matrix(3.4912193,0,0,3.4912193,-71.950022,-151.78313)"><title
         id="title1">door-key</title><path
         fill-rule="evenodd"
         d="m 30.971005,44.732323 c -5.098644,-0.0025 -9.233221,4.130078 -9.233221,9.228718 0,5.098641 4.134577,9.231208 9.233221,9.228719 5.095124,-0.0025 9.22421,-4.133597 9.22421,-9.228719 0,-5.095121 -4.129086,-9.22623 -9.22421,-9.228718 z m -4.61436,20.76462 c -5.095377,-0.123777 -9.228718,4.131839 -9.228718,9.228719 v 2.307178 c -1e-6,2.548441 2.065917,4.614362 4.614358,4.614362 h 10.457439 c 2.548442,0 3.635822,-2.261276 4.614362,-4.614362 l 0.857558,-2.062161 c 1.957079,-4.706171 3.866657,-9.104942 -1.228721,-9.228719 z"
         clip-rule="evenodd"
         id="path1-0"
         style="fill:none;fill-opacity:1;stroke:#353e48;stroke-width:2;stroke-dasharray:none;stroke-opacity:1" /><g
         id="g1-70"
         transform="matrix(0.05457209,0.20366579,-0.20366579,0.05457209,54.673743,53.931003)"
         style="fill:none;fill-opacity:1;stroke:#1872f0;stroke-width:9.4854;stroke-dasharray:none;stroke-opacity:1"><path
           fill-rule="evenodd"
           clip-rule="evenodd"
           d="m 78.9561,54.142799 32.17611,32.596343 V 102.07039 H 95.9088 V 90.545788 H 83.294773 V 77.930971 H 71.223081 L 67.733588,66.562569 c -5.558132,3.70595 -12.300836,5.876873 -19.566845,5.876873 -19.030062,0 -34.464385,-14.881682 -34.464385,-33.234619 0,-18.352936 15.434323,-33.2346183 34.464385,-33.2346183 19.030854,0 34.462798,14.8824743 34.462798,33.2346183 0,5.372597 -1.324912,10.446276 -3.673441,14.937976 z M 43.213583,28.557154 c 3.395932,0 6.152797,2.754488 6.152797,6.152798 0,3.39831 -2.756865,6.152796 -6.152797,6.152796 -3.39831,0 -6.152798,-2.754486 -6.152798,-6.152796 -7.92e-4,-3.39831 2.754488,-6.152798 6.152798,-6.152798 z"
           id="path1"
           style="fill:none;fill-opacity:1;stroke:#1872f0;stroke-width:9.4854;stroke-dasharray:none;stroke-opacity:1" /></g></g></g></svg>

<svg width="50px" height="50px" version="1.1" viewBox="0 0 50 50" xml:space="preserve" xmlns="http://www.w3.org/2000/svg"><g transform="matrix(.28643 0 0 .28643 9.6089 6.4757)"><g transform="matrix(3.4912 0 0 3.4912 -71.95 -151.78)" fill="none"><path d="m30.971 44.732c-5.0986-0.0025-9.2332 4.1301-9.2332 9.2287 0 5.0986 4.1346 9.2312 9.2332 9.2287 5.0951-0.0025 9.2242-4.1336 9.2242-9.2287 0-5.0951-4.1291-9.2262-9.2242-9.2287zm-4.6144 20.765c-5.0954-0.12378-9.2287 4.1318-9.2287 9.2287v2.3072c-1e-6 2.5484 2.0659 4.6144 4.6144 4.6144h10.457c2.5484 0 3.6358-2.2613 4.6144-4.6144l0.85756-2.0622c1.9571-4.7062 3.8667-9.1049-1.2287-9.2287z" clip-rule="evenodd" fill-rule="evenodd" stroke="currentColor" stroke-width="2"/><g transform="matrix(.054572 .20367 -.20367 .054572 54.674 53.931)" stroke="#1872f0" stroke-width="9.4854"><path d="m78.956 54.143 32.176 32.596v15.331h-15.223v-11.525h-12.614v-12.615h-12.072l-3.4895-11.368c-5.5581 3.706-12.301 5.8769-19.567 5.8769-19.03 0-34.464-14.882-34.464-33.235 0-18.353 15.434-33.235 34.464-33.235 19.031 0 34.463 14.882 34.463 33.235 0 5.3726-1.3249 10.446-3.6734 14.938zm-35.743-25.586c3.3959 0 6.1528 2.7545 6.1528 6.1528s-2.7569 6.1528-6.1528 6.1528c-3.3983 0-6.1528-2.7545-6.1528-6.1528-7.92e-4 -3.3983 2.7545-6.1528 6.1528-6.1528z" clip-rule="evenodd" fill="none" fill-rule="evenodd" stroke="#1872f0" stroke-width="9.4854"/></g></g></g></svg>
